wp-content/themes/fusion/images/v2/home/nuage_2.svg

<?xml version="1.0" encoding="UTF-8"?>
<svg width="685px" height="300px" viewBox="0 0 685 300" version="1.1" xmlns="http://www.w3.org/2000/svg" xmlns:xlink="http://www.w3.org/1999/xlink">
    <!-- Generator: Sketch 53.2 (72643) - https://sketchapp.com -->
    <title>Fill 1</title>
    <desc>Created with Sketch.</desc>
    <g id="Site-Blomy" stroke="none" stroke-width="1" fill="none" fill-rule="evenodd">
        <g id="1.0-Accueil-web" transform="translate(-31.000000, -1379.000000)" fill="#EBF7FA">
            <g id="Projet-indépendant" transform="translate(31.000000, 827.000000)">
                <path d="M135.489798,801.746569 C191.525738,827.898577 251.06533,864.374971 310.650658,847.857755 C339.662817,839.814504 364.571511,819.698499 394.135497,814.017423 C432.172577,806.707287 468.977794,823.848813 505.351146,832.049642 C541.531808,840.2077 582.75614,840.176184 619.826773,840.617404 C626.751603,840.699194 633.827136,840.642916 640.374084,838.382792 C650.664609,834.829775 658.346702,826.342303 665.556443,818.179743 C671.676025,811.250797 677.898325,804.162021 681.52269,795.655039 C688.645457,778.935223 684.290822,758.749432 673.327758,744.258974 C662.364693,729.768517 645.672674,720.460137 628.280374,715.227034 C544.617091,690.052762 443.386813,705.46993 368.112652,654.674164 C344.387836,638.664951 325.326559,616.421637 301.347574,600.794364 C266.457257,578.056554 224.697593,571.500543 184.298003,565.602609 C147.132899,560.17666 95.9231965,542.040139 60.4248205,559.240194 C43.3609178,567.508557 31.3654268,583.455489 21.6319769,599.737838 C11.0580404,617.425636 2.19806681,636.697472 0.352145262,657.226183 C-2.23979251,686.052522 9.67097506,733.366556 29.6679587,756.048088 C52.4375735,781.875185 104.883639,787.462464 135.489798,801.746569" id="Fill-1"></path>
            </g>
        </g>
    </g>
</svg>

<?xml version="1.0" encoding="utf-8"?>
<!-- Generator: Adobe Illustrator 22.0.1, SVG Export Plug-In . SVG Version: 6.00 Build 0)  -->
<svg version="1.1" id="Calque_1" xmlns="http://www.w3.org/2000/svg" xmlns:xlink="http://www.w3.org/1999/xlink" x="0px" y="0px"
	 viewBox="0 0 685 300" style="enable-background:new 0 0 685 300;" xml:space="preserve">
<style type="text/css">
	.st0{fill:#E6E6FC;}
</style>
<title>Fill 1</title>
<desc>Created with Sketch.</desc>
<g id="Site-Blomy">
	<g id="_x31_.0-Accueil-web" transform="translate(-31.000000, -1379.000000)">
		<g id="Projet-indépendant" transform="translate(31.000000, 827.000000)">
			<path id="Fill-1" class="st0" d="M135.5,801.7c56,26.2,115.6,62.6,175.2,46.1c29-8,53.9-28.2,83.5-33.8c38-7.3,74.8,9.8,111.2,18
				c36.2,8.2,77.4,8.1,114.5,8.6c6.9,0.1,14,0,20.5-2.2c10.3-3.6,18-12,25.2-20.2c6.1-6.9,12.3-14,16-22.5
				c7.1-16.7,2.8-36.9-8.2-51.4s-27.7-23.8-45-29c-83.7-25.2-184.9-9.8-260.2-60.6c-23.7-16-42.8-38.3-66.8-53.9
				c-34.9-22.7-76.6-29.3-117-35.2c-37.2-5.4-88.4-23.6-123.9-6.4c-17.1,8.3-29.1,24.2-38.8,40.5c-10.6,17.7-19.4,37-21.3,57.5
				c-2.6,28.8,9.3,76.1,29.3,98.8C52.4,781.9,104.9,787.5,135.5,801.7"/>
		</g>
	</g>
</g>
</svg>
